assets/Carpentry saw/Flat/carpentry_saw_flat.svg

<svg width="32" height="32" viewBox="0 0 32 32" fill="none" xmlns="http://www.w3.org/2000/svg">
<path d="M15.4999 25.7499H18.2499L23.7994 17.0494L8.99988 2.24991C8.49988 1.74993 7.99988 1.99601 7.49988 2.49991L3.49988 6.49994C2.9999 7.00385 3.24983 7.24994 3.99988 7.49994C4.74988 7.74994 5.00378 7.99994 5.00238 10.0006C4.99988 10.4999 6.49988 10.9999 6.49988 10.9999C6.49988 10.9999 7.24988 11.2499 7.24988 11.9999V13.2499C7.24988 13.2499 7.28503 13.9843 8.99988 14.7499C8.99988 14.7499 9.49988 14.9999 9.49988 15.4999C9.49988 17.4999 9.99988 17.7499 9.99988 17.7499L11.4999 18.4999C11.4999 18.4999 11.9999 18.7499 11.9999 18.9999C11.9999 20.4999 11.9999 21.2499 12.4999 21.4959C12.4999 21.4959 14.4999 22.2499 14.4999 22.7499V24.9999C14.4999 25.4999 14.9999 25.7499 15.4999 25.7499Z" fill="#B4ACBC"/>
<path d="M29 22.2499L23.7539 17.0038H23.75C23 16.2499 22.5 16.2499 22 16.4999C21.4258 16.8202 19 19.4999 19 19.4999C19 19.4999 18.2456 20.2499 18.25 20.7499V25.9999L22 29.7499C22.5 30.2499 23 29.9999 23.5 29.4999L29 23.9999C29 23.9999 30 23.1249 29 22.2499ZM25.8107 22.0606C26.3964 22.6464 26.3964 23.5961 25.8107 24.1819L23.6893 26.3032C23.1036 26.889 22.1538 26.889 21.568 26.3032C20.9822 25.7175 20.9822 24.7677 21.568 24.1819L23.6893 22.0606C24.2751 21.4748 25.2249 21.4748 25.8107 22.0606Z" fill="#7D4533"/>
</svg>

<svg xmlns="http://www.w3.org/2000/svg" width="32" height="32" fill="none"><path fill="#B4ACBC" d="M15.5 25.75h2.75l5.55-8.7L9 2.25c-.5-.5-1-.254-1.5.25l-4 4c-.5.504-.25.75.5 1S5.004 8 5.002 10C5 10.5 6.5 11 6.5 11s.75.25.75 1v1.25s.035.734 1.75 1.5c0 0 .5.25.5.75 0 2 .5 2.25.5 2.25l1.5.75s.5.25.5.5c0 1.5 0 2.25.5 2.496 0 0 2 .754 2 1.254V25c0 .5.5.75 1 .75Z"/><path fill="#7D4533" d="m29 22.25-5.246-5.246h-.004C23 16.25 22.5 16.25 22 16.5c-.574.32-3 3-3 3s-.754.75-.75 1.25V26L22 29.75c.5.5 1 .25 1.5-.25L29 24s1-.875 0-1.75Zm-3.19-.19a1.5 1.5 0 0 1 0 2.122l-2.12 2.121a1.5 1.5 0 1 1-2.122-2.121l2.121-2.121a1.5 1.5 0 0 1 2.122 0Z"/></svg>
